X: 1
T: Langholm Fair
T: 3 x 32S (Jean Attwood, Alexander Dances 3)
P: Mr. Michie's
C: J. Scott Skinner
C: from Scottish Fiddle Club of Oregon
R: Strathspey
M: C
K: G
E|\
"G"G>A B<d "Am"c<A E>G| "D"F>G A<e "G"d<B B<G| "G"G>A B<d "Am"c<A E>G| "D"F<A d>B "G"G2GD|
"G"G>A B<d "Am"c<A E>G| "D"F>G A<e "G"d<B B<G| "G"G>A B<d "Am"c<A E>G| "D"F<A d>B "G"G2 G:
d|\
"G" g>d "C"e<g "G"d>B B>G| "Am"c>d e/d/c/B/ "D7"A<a a>f| "G"g>d "C"e<g "G"d>B B>G|"D7" ((3EDE) ((3Adc) "G"B>G G>d|
"G" g>d "C"e<g "G"d>B B>G| "Am"c>d e/d/c/B/ "D7"A<a a>f| "G"((3gbg) ((3dgd) "Em"((3BdB) ((3GBG)| "D7" ((3FDF) ((3Adc) "G"B<G G2 G:|

